Numix-GalliumOS/22/mimetypes/gnome-mime-text-x-makefile.svg

<?xml version="1.0" encoding="UTF-8" standalone="no"?>
<svg
   xmlns:dc="http://purl.org/dc/elements/1.1/"
   xmlns:cc="http://creativecommons.org/ns#"
   xmlns:rdf="http://www.w3.org/1999/02/22-rdf-syntax-ns#"
   xmlns:svg="http://www.w3.org/2000/svg"
   xmlns="http://www.w3.org/2000/svg"
   xmlns:sodipodi="http://sodipodi.sourceforge.net/DTD/sodipodi-0.dtd"
   xmlns:inkscape="http://www.inkscape.org/namespaces/inkscape"
   width="22"
   height="22"
   viewBox="0 0 22 22"
   id="svg2"
   version="1.1"
   inkscape:version="0.48.5 r10040"
   sodipodi:docname="gnome-mime-text-x-makefile.svg">
  <metadata
     id="metadata22">
    <rdf:RDF>
      <cc:Work
         rdf:about="">
        <dc:format>image/svg+xml</dc:format>
        <dc:type
           rdf:resource="http://purl.org/dc/dcmitype/StillImage" />
      </cc:Work>
    </rdf:RDF>
  </metadata>
  <defs
     id="defs20" />
  <sodipodi:namedview
     pagecolor="#ffffff"
     bordercolor="#666666"
     borderopacity="1"
     objecttolerance="10"
     gridtolerance="10"
     guidetolerance="10"
     inkscape:pageopacity="0"
     inkscape:pageshadow="2"
     inkscape:window-width="1280"
     inkscape:window-height="970"
     id="namedview18"
     showgrid="true"
     inkscape:zoom="10.429825"
     inkscape:cx="9.9755476"
     inkscape:cy="15.748062"
     inkscape:window-x="0"
     inkscape:window-y="0"
     inkscape:window-maximized="1"
     inkscape:current-layer="svg2">
    <inkscape:grid
       type="xygrid"
       id="grid3010"
       empspacing="5"
       visible="true"
       enabled="true"
       snapvisiblegridlinesonly="true" />
  </sodipodi:namedview>
  <path
     style="fill:#dcdcdc"
     d="M 4,0 C 3.527343,0 3,0.527344 3,1 l 0,20 c 0,0.445312 0.554687,1 1,1 l 14,0 c 0.445313,0 0.992367,-0.554753 1,-1 L 19,6 13,0 z"
     id="path4"
     inkscape:connector-curvature="0"
     sodipodi:nodetypes="ssssssccs" />
  <path
     style="fill:#000000;fill-opacity:0.19599998"
     d="m 14,6 5,5 0,-5 z"
     id="path6"
     inkscape:connector-curvature="0"
     sodipodi:nodetypes="cccc" />
  <path
     style="fill:#ffffff;fill-opacity:0.39200003"
     d="m 13,0 6,6 -5,0 C 13.554688,6 13,5.445312 13,5 z"
     id="path8"
     inkscape:connector-curvature="0"
     sodipodi:nodetypes="ccssc" />
  <path
     style="fill:#888888"
     inkscape:connector-curvature="0"
     id="path12"
     d="m 14.120227,9.9291718 c 0.549619,0.1771192 0.06297,0.9918622 0.85878,1.3874272 0.904579,0.460508 1.351146,-0.690761 1.895038,0.129887 0.543894,0.820649 -0.749999,0.690761 -0.709923,1.659007 0.03436,0.968248 1.316794,0.761609 0.835878,1.611777 -0.480916,0.856072 -1.013359,-0.265677 -1.883588,0.247966 -0.87023,0.507738 -0.04008,1.452369 -1.064887,1.487793 -1.019084,0.02952 -0.263358,-0.962343 -1.167939,-1.416946 -0.904581,-0.454603 -1.351146,0.690761 -1.895038,-0.129887 -0.543894,-0.820649 0.749999,-0.690761 0.709923,-1.659008 -0.03435,-0.968246 -1.316794,-0.761608 -0.835878,-1.611776 0.480916,-0.856073 1.013358,0.265678 1.883588,-0.247966 0.870229,-0.507738 0.04008,-1.4523691 1.064886,-1.4818885 0.125954,-0.00591 0.229009,0 0.30916,0.023614 z m -0.01143,2.4619452 c -0.458033,-0.09446 -0.910324,0.183021 -1.001927,0.619914 -0.09733,0.430987 0.188931,0.856071 0.646946,0.950534 0.458017,0.09446 0.910307,-0.183021 1.00191,-0.619913 0.09733,-0.430988 -0.188931,-0.856072 -0.646947,-0.950535 z" />
  <path
     style="fill:#888888"
     inkscape:connector-curvature="0"
     id="path14"
     d="m 9.723279,5.9026838 c 0.549618,0.171214 0.062977,0.9859588 0.85878,1.3874268 0.90458,0.4546032 1.351146,-0.6966658 1.895038,0.1239825 0.543893,0.8206484 -0.75,0.696666 -0.709923,1.6590075 0.03435,0.9682464 1.316794,0.7616081 0.835877,1.6176814 -0.480916,0.850168 -1.013358,-0.265678 -1.883588,0.242061 -0.870229,0.507738 -0.04008,1.458274 -1.0648864,1.487794 C 8.635493,12.450155 9.3912185,11.458294 8.4866372,11.00369 7.5820575,10.549087 7.1354917,11.700356 6.5915994,10.879708 6.0477056,10.059059 7.3415986,10.183042 7.3015219,9.2147952 7.2671714,8.2524537 5.9847281,8.4590905 6.4656444,7.6030193 6.9465606,6.7528515 7.4790032,7.8686963 8.3492326,7.360958 9.2194619,6.8473146 8.3893093,5.9026838 9.4141193,5.8731645 c 0.1259534,-0.00591 0.2290077,0 0.3091597,0.029519 z M 9.7118323,8.3587239 C 9.2538139,8.2701644 8.8015233,8.54765 8.7099201,8.9786375 8.6125922,9.41553 8.8988511,9.8406139 9.3568666,9.9291718 9.814882,10.023635 10.267173,9.7461508 10.358776,9.3151619 10.456104,8.8782708 10.169845,8.453187 9.7118293,8.3587239 z" />
  <path
     style="fill:#888888"
     inkscape:connector-curvature="0"
     id="path16"
     d="m 8.2576295,11.440581 c 0.5496186,0.177119 0.062977,0.991862 0.8587797,1.387427 0.9045798,0.460508 1.3511458,-0.690761 1.8950378,0.129887 0.543894,0.820649 -0.749999,0.690762 -0.709923,1.659008 0.03435,0.968246 1.316794,0.761608 0.835878,1.611775 -0.480916,0.856073 -1.013359,-0.265676 -1.8835881,0.247967 -0.8702294,0.507739 -0.040077,1.452369 -1.0648867,1.487793 C 7.1698435,17.993958 7.9255691,17.002096 7.0209878,16.547493 6.116408,16.092889 5.6698422,17.238253 5.1259499,16.417605 4.5820562,15.596957 5.8759491,15.726844 5.8358724,14.758597 5.801522,13.790351 4.5190787,13.99699 4.9999949,13.146822 c 0.4809162,-0.856073 1.0133589,0.265677 1.8835882,-0.247967 0.8702294,-0.507738 0.040077,-1.452369 1.0648867,-1.481888 0.1259535,-0.0059 0.2290077,0 0.3091597,0.02361 z m -0.01145,2.461945 c -0.4580155,-0.09446 -0.9103062,0.183021 -1.0019092,0.619914 -0.097328,0.430987 0.1889309,0.856071 0.6469464,0.950534 0.4580155,0.09446 0.9103062,-0.183021 1.0019092,-0.619914 0.097328,-0.430987 -0.1889309,-0.85607 -0.6469464,-0.950534 z" />
</svg>

<svg xmlns="http://www.w3.org/2000/svg" viewBox="0 0 22 22">
 <path d="m 4 0 c -0.473 0 -1 0.527 -1 1 l 0 20 c 0 0.445 0.555 1 1 1 l 14 0 c 0.445 0 0.992 -0.555 1 -1 l 0 -15 -6 -6 z" style="fill:#dcdcdc"/>
 <path d="m 14 6 5 5 0 -5 z" style="fill:#000;fill-opacity:0.196"/>
 <path d="m 13 0 6 6 -5 0 c -0.445 0 -1 -0.555 -1 -1 z" style="fill:#fff;fill-opacity:0.392"/>
 <path d="m 14.12 9.929 c 0.55 0.177 0.063 0.992 0.859 1.387 0.905 0.461 1.351 -0.691 1.895 0.13 0.544 0.821 -0.75 0.691 -0.71 1.659 0.034 0.968 1.317 0.762 0.836 1.612 -0.481 0.856 -1.013 -0.266 -1.884 0.248 -0.87 0.508 -0.04 1.452 -1.065 1.488 -1.019 0.03 -0.263 -0.962 -1.168 -1.417 -0.905 -0.455 -1.351 0.691 -1.895 -0.13 -0.544 -0.821 0.75 -0.691 0.71 -1.659 -0.034 -0.968 -1.317 -0.762 -0.836 -1.612 0.481 -0.856 1.013 0.266 1.884 -0.248 0.87 -0.508 0.04 -1.452 1.065 -1.482 0.126 -0.006 0.229 0 0.309 0.024 z m -0.011 2.462 c -0.458 -0.094 -0.91 0.183 -1 0.62 -0.097 0.431 0.189 0.856 0.647 0.951 0.458 0.094 0.91 -0.183 1 -0.62 0.097 -0.431 -0.189 -0.856 -0.647 -0.951 z" style="fill:#888"/>
 <path d="m 9.723 5.903 c 0.55 0.171 0.063 0.986 0.859 1.387 0.905 0.455 1.351 -0.697 1.895 0.124 0.544 0.821 -0.75 0.697 -0.71 1.659 0.034 0.968 1.317 0.762 0.836 1.618 -0.481 0.85 -1.013 -0.266 -1.884 0.242 -0.87 0.508 -0.04 1.458 -1.065 1.488 c -1.019 0.03 -0.263 -0.962 -1.168 -1.417 -0.905 -0.455 -1.351 0.697 -1.895 -0.124 -0.544 -0.821 0.75 -0.697 0.71 -1.665 -0.034 -0.962 -1.317 -0.756 -0.836 -1.612 0.481 -0.85 1.013 0.266 1.884 -0.242 0.87 -0.514 0.04 -1.458 1.065 -1.488 c 0.126 -0.006 0.229 0 0.309 0.03 z m -0.011 2.456 c -0.458 -0.089 -0.91 0.189 -1 0.62 -0.097 0.437 0.189 0.862 0.647 0.951 0.458 0.094 0.91 -0.183 1 -0.614 0.097 -0.437 -0.189 -0.862 -0.647 -0.956 z" style="fill:#888"/>
 <path d="m 8.258 11.441 c 0.55 0.177 0.063 0.992 0.859 1.387 0.905 0.461 1.351 -0.691 1.895 0.13 0.544 0.821 -0.75 0.691 -0.71 1.659 0.034 0.968 1.317 0.762 0.836 1.612 -0.481 0.856 -1.013 -0.266 -1.884 0.248 -0.87 0.508 -0.04 1.452 -1.065 1.488 c -1.019 0.03 -0.263 -0.962 -1.168 -1.417 -0.905 -0.455 -1.351 0.691 -1.895 -0.13 -0.544 -0.821 0.75 -0.691 0.71 -1.659 -0.034 -0.968 -1.317 -0.762 -0.836 -1.612 c 0.481 -0.856 1.013 0.266 1.884 -0.248 0.87 -0.508 0.04 -1.452 1.065 -1.482 0.126 -0.006 0.229 0 0.309 0.024 z m -0.011 2.462 c -0.458 -0.094 -0.91 0.183 -1 0.62 -0.097 0.431 0.189 0.856 0.647 0.951 0.458 0.094 0.91 -0.183 1 -0.62 0.097 -0.431 -0.189 -0.856 -0.647 -0.951 z" style="fill:#888"/>
</svg>
